assets/icons/qvision/airline_seat_recline_normal.svg

<svg xmlns="http://www.w3.org/2000/svg" height="24" viewBox="0 0 24 24" width="24"><path d="M0 0h24v24H0z" fill="none"/><path d="M7.59 5.41c-.78-.78-.78-2.05 0-2.83.78-.78 2.05-.78 2.83 0 .78.78.78 2.05 0 2.83-.79.79-2.05.79-2.83 0zM6 16V7H4v9c0 2.76 2.24 5 5 5h6v-2H9c-1.66 0-3-1.34-3-3zm14 4.07L14.93 15H11.5v-3.68c1.4 1.15 3.6 2.16 5.5 2.16v-2.16c-1.66.02-3.61-.87-4.67-2.04l-1.4-1.55c-.19-.21-.43-.38-.69-.5-.29-.14-.62-.23-.96-.23h-.03C8.01 7 7 8.01 7 9.25V15c0 1.66 1.34 3 3 3h5.07l3.5 3.5L20 20.07z"/></svg>

<svg width="24" height="24" viewBox="0 0 24 24" fill="none" xmlns="http://www.w3.org/2000/svg">
<g clip-path="url(#clip0_147_5907)">
<path d="M7.59 5.41C6.81 4.63 6.81 3.36 7.59 2.58C8.37 1.8 9.64 1.8 10.42 2.58C11.2 3.36 11.2 4.63 10.42 5.41C9.63 6.2 8.37 6.2 7.59 5.41ZM6 16V7H4V16C4 18.76 6.24 21 9 21H15V19H9C7.34 19 6 17.66 6 16ZM20 20.07L14.93 15H11.5V11.32C12.9 12.47 15.1 13.48 17 13.48V11.32C15.34 11.34 13.39 10.45 12.33 9.27999L10.93 7.73C10.74 7.52 10.5 7.35 10.24 7.23C9.95 7.09 9.62 7 9.28 7H9.25C8.01 7 7 8.01 7 9.25V15C7 16.66 8.34 18 10 18H15.07L18.57 21.5L20 20.07Z" fill="#323232"/>
</g>
<defs>
<clipPath id="clip0_147_5907">
<rect width="24" height="24" fill="white"/>
</clipPath>
</defs>
</svg>
